public/images/logos/logo.svg

<svg width="130" height="48" viewBox="0 0 130 48" fill="none" xmlns="http://www.w3.org/2000/svg">
<g clip-path="url(#clip0_3170_10697)">
<path d="M41.5083 37C39.9687 39.6667 36.1197 39.6667 34.5801 37L22.9829 16.913C21.4433 14.2464 23.3678 10.913 26.447 10.913H49.6414C52.7206 10.913 54.6452 14.2464 53.1056 16.913L41.5083 37Z" fill="#6667AB"/>
<path d="M25.856 31.7832C24.3164 34.4499 20.4674 34.4499 18.9278 31.7832L7.33059 11.6963C5.79099 9.02959 7.71549 5.69625 10.7947 5.69625H33.9891C37.0683 5.69625 38.9928 9.02958 37.4532 11.6962L25.856 31.7832Z" fill="#96D8DE"/>
<mask id="mask0_3170_10697" style="mask-type:alpha" maskUnits="userSpaceOnUse" x="22" y="10" width="32" height="30">
<path d="M41.5083 37.0019C39.9687 39.6686 36.1197 39.6686 34.5801 37.002L22.9829 16.915C21.4433 14.2483 23.3678 10.915 26.447 10.915H49.6414C52.7206 10.915 54.6452 14.2483 53.1056 16.915L41.5083 37.0019Z" fill="#6667AB"/>
</mask>
<g mask="url(#mask0_3170_10697)">
<path fill-rule="evenodd" clip-rule="evenodd" d="M28.713 26.8373L19.5197 10.9141H37.9062L28.713 26.8373Z" fill="#8E8FEB"/>
</g>
<rect width="10.4348" height="10.4348" rx="5.21739" transform="matrix(-1 0 0 1 14.043 32.5664)" fill="#96D8DE"/>
<path d="M58.1689 33.9495C57.6124 33.9495 57.1324 33.7617 56.7289 33.386C56.3393 32.9964 56.1445 32.5025 56.1445 31.9043C56.1445 31.306 56.3393 30.826 56.7289 30.4643C57.1324 30.0886 57.6124 29.9008 58.1689 29.9008C58.7393 29.9008 59.2193 30.0886 59.6089 30.4643C59.9984 30.826 60.1932 31.306 60.1932 31.9043C60.1932 32.5025 59.9984 32.9964 59.6089 33.386C59.2193 33.7617 58.7393 33.9495 58.1689 33.9495Z" fill="white"/>
<path d="M65.3403 33.7825L60.5612 19.1738H64.0673L68.2203 32.113H66.4673L70.8082 19.1738H73.9386L78.1125 32.113H76.4221L80.6795 19.1738H83.9143L79.1351 33.7825H75.5038L71.8099 22.4295H72.7699L68.9717 33.7825H65.3403Z" fill="white"/>
<path d="M88.9112 25.059H95.9443V27.6886H88.9112V25.059ZM89.1617 31.0695H97.113V33.7825H85.8016V19.1738H96.8417V21.8869H89.1617V31.0695Z" fill="white"/>
<path d="M99.803 33.7825V19.1738H106.94C108.777 19.1738 110.154 19.5217 111.073 20.2173C112.005 20.913 112.471 21.8312 112.471 22.9721C112.471 23.7373 112.283 24.4051 111.907 24.9756C111.532 25.5321 111.017 25.9634 110.363 26.2695C109.709 26.5756 108.958 26.7286 108.109 26.7286L108.506 25.873C109.424 25.873 110.238 26.026 110.947 26.3321C111.657 26.6243 112.206 27.0625 112.596 27.6469C113 28.2312 113.201 28.9477 113.201 29.7964C113.201 31.0486 112.707 32.0295 111.72 32.739C110.732 33.4347 109.278 33.7825 107.358 33.7825H99.803ZM103.163 31.2364H107.107C107.984 31.2364 108.645 31.0973 109.09 30.819C109.549 30.5269 109.779 30.0677 109.779 29.4417C109.779 28.8295 109.549 28.3773 109.09 28.0851C108.645 27.779 107.984 27.626 107.107 27.626H102.913V25.1634H106.523C107.344 25.1634 107.97 25.0243 108.401 24.746C108.846 24.4538 109.069 24.0156 109.069 23.4312C109.069 22.8608 108.846 22.4364 108.401 22.1582C107.97 21.866 107.344 21.7199 106.523 21.7199H103.163V31.2364Z" fill="white"/>
<path d="M119.58 34.033C118.564 34.033 117.556 33.9008 116.554 33.6364C115.552 33.3582 114.703 32.9686 114.008 32.4677L115.323 29.8799C115.879 30.2834 116.526 30.6034 117.263 30.8399C118.001 31.0764 118.745 31.1947 119.497 31.1947C120.345 31.1947 121.013 31.0277 121.5 30.6938C121.987 30.3599 122.23 29.9008 122.23 29.3164C122.23 28.7599 122.015 28.3217 121.583 28.0017C121.152 27.6817 120.457 27.5217 119.497 27.5217H117.952V25.2886L122.022 20.6764L122.397 21.8869H114.738V19.1738H124.964V21.3651L120.916 25.9773L119.204 24.9964H120.185C121.98 24.9964 123.337 25.3999 124.255 26.2069C125.173 27.0138 125.632 28.0504 125.632 29.3164C125.632 30.1373 125.417 30.9095 124.985 31.633C124.554 32.3425 123.893 32.9199 123.003 33.3651C122.112 33.8103 120.971 34.033 119.58 34.033Z" fill="white"/>
</g>
<defs>
<clipPath id="clip0_3170_10697">
<rect width="130" height="48" fill="white"/>
</clipPath>
</defs>
</svg>

<svg width="130" height="48" viewBox="0 0 130 48" fill="none" xmlns="http://www.w3.org/2000/svg"><g clip-path="url(#clip0_3170_10697)"><path d="M41.508 37c-1.54 2.667-5.388 2.667-6.928 0L22.983 16.913c-1.54-2.667.385-6 3.464-6h23.194c3.08 0 5.004 3.333 3.465 6L41.508 37z" fill="#6667AB"/><path d="M25.856 31.783c-1.54 2.667-5.389 2.667-6.928 0L7.33 11.696c-1.54-2.666.384-6 3.464-6h23.194c3.08 0 5.004 3.334 3.464 6L25.856 31.783z" fill="#96D8DE"/><mask id="a" style="mask-type:alpha" maskUnits="userSpaceOnUse" x="22" y="10" width="32" height="30"><path d="M41.508 37.002c-1.54 2.667-5.388 2.667-6.928 0L22.983 16.915c-1.54-2.667.385-6 3.464-6h23.194c3.08 0 5.004 3.333 3.465 6L41.508 37.002z" fill="#6667AB"/></mask><g mask="url(#a)"><path fill-rule="evenodd" clip-rule="evenodd" d="M28.713 26.837L19.52 10.914h18.386l-9.193 15.923z" fill="#8E8FEB"/></g><rect width="10.435" height="10.435" rx="5.217" transform="matrix(-1 0 0 1 14.043 32.566)" fill="#96D8DE"/><path d="M58.169 33.95a2.041 2.041 0 0 1-1.44-.564c-.39-.39-.584-.884-.584-1.482s.194-1.078.584-1.44a2.041 2.041 0 0 1 1.44-.563c.57 0 1.05.188 1.44.563.39.362.584.842.584 1.44s-.195 1.092-.584 1.482c-.39.376-.87.563-1.44.563zM65.34 33.782l-4.779-14.608h3.506l4.153 12.939h-1.753l4.341-12.94h3.13l4.174 12.94h-1.69l4.258-12.94h3.234l-4.779 14.61h-3.631L71.81 22.428h.96l-3.798 11.354H65.34zM88.911 25.059h7.033v2.63h-7.033v-2.63zm.25 6.01h7.952v2.713H85.802V19.174h11.04v2.713h-7.68v9.183zM99.803 33.782V19.174h7.137c1.837 0 3.214.348 4.133 1.043.932.696 1.398 1.614 1.398 2.755 0 .765-.188 1.433-.564 2.004-.375.556-.89.987-1.544 1.294-.654.306-1.405.459-2.254.459l.397-.856c.918 0 1.732.153 2.441.46.71.291 1.259.73 1.649 1.314.404.584.605 1.3.605 2.15 0 1.252-.494 2.232-1.481 2.942-.988.696-2.442 1.044-4.362 1.044h-7.555zm3.36-2.546h3.944c.877 0 1.538-.139 1.983-.417.459-.292.689-.751.689-1.377 0-.613-.23-1.065-.689-1.357-.445-.306-1.106-.459-1.983-.459h-4.194v-2.463h3.61c.821 0 1.447-.139 1.878-.417.445-.292.668-.73.668-1.315 0-.57-.223-.995-.668-1.273-.431-.292-1.057-.438-1.878-.438h-3.36v9.516zM119.58 34.033a11.81 11.81 0 0 1-3.026-.397c-1.002-.278-1.851-.667-2.546-1.168l1.315-2.588a6.828 6.828 0 0 0 1.94.96 7.278 7.278 0 0 0 2.234.355c.848 0 1.516-.167 2.003-.501.487-.334.73-.793.73-1.378 0-.556-.215-.994-.647-1.314-.431-.32-1.126-.48-2.086-.48h-1.545v-2.233l4.07-4.613.375 1.21h-7.659v-2.712h10.226v2.191l-4.048 4.612-1.712-.98h.981c1.795 0 3.152.403 4.07 1.21.918.807 1.377 1.843 1.377 3.11 0 .82-.215 1.593-.647 2.316-.431.71-1.092 1.287-1.982 1.732-.891.445-2.032.668-3.423.668z" fill="#fff"/></g><defs><clipPath id="clip0_3170_10697"><path fill="#fff" d="M0 0h130v48H0z"/></clipPath></defs></svg>
